public/logos/F1.svg

<svg xmlns="http://www.w3.org/2000/svg" xmlns:xlink="http://www.w3.org/1999/xlink" width="120px" height="30px" viewBox="0 0 120 30" version="1.1" class="injected-svg js-svg-inject">
    <!-- Generator: Sketch 49.1 (51147) - http://www.bohemiancoding.com/sketch -->
    <title>Logos / F1-logo red</title>
    <desc>Created with Sketch.</desc>
    <defs>
        <path d="M101.086812,30 L101.711812,30 L101.711812,27.106875 L101.722437,27.106875 L102.761812,30 L103.302437,30 L104.341812,27.106875 L104.352437,27.106875 L104.352437,30 L104.977437,30 L104.977437,26.25125 L104.063687,26.25125 L103.055562,29.18625 L103.044937,29.18625 L102.011187,26.25125 L101.086812,26.25125 L101.086812,30 Z M97.6274375,26.818125 L98.8136875,26.818125 L98.8136875,30 L99.4699375,30 L99.4699375,26.818125 L100.661812,26.818125 L100.661812,26.25125 L97.6274375,26.25125 L97.6274375,26.818125 Z M89.9999375,30 L119.999937,0 L101.943687,0 L71.9443125,30 L89.9999375,30 Z M85.6986875,13.065 L49.3818125,13.065 C38.3136875,13.065 36.3768125,13.651875 31.6361875,18.3925 C27.2024375,22.82625 20.0005625,30 20.0005625,30 L35.7324375,30 L39.4855625,26.246875 C41.9530625,23.779375 43.2255625,23.52375 48.4068125,23.52375 L75.2405625,23.52375 L85.6986875,13.065 Z M31.1518125,16.253125 C27.8774375,19.3425 20.7530625,26.263125 16.9130625,30 L-6.25e-05,30 C-6.25e-05,30 13.5524375,16.486875 21.0849375,9.0725 C28.8455625,1.685 32.7143125,0 46.9486875,0 L98.7643125,0 L87.5449375,11.21875 L48.0011875,11.21875 C37.9993125,11.21875 35.7518125,11.911875 31.1518125,16.253125 Z" id="path-1"></path>
    </defs>
    <g id="Logos-/-F1-logo-red" stroke="none" stroke-width="1" fill="none" fill-rule="evenodd">
        <g id="Page-1">
            <mask id="mask-2" fill="white">
                <use xlink:href="#path-1"></use>
            </mask>
            <use id="Fill-1" fill="#EE0000" xlink:href="#path-1"></use>
        </g>
    </g>
</svg>

<svg xmlns="http://www.w3.org/2000/svg" xmlns:xlink="http://www.w3.org/1999/xlink" width="120" height="30" class="injected-svg js-svg-inject" viewBox="0 0 120 30"><title>Logos / F1-logo red</title><defs><path id="path-1" d="M101.0868 30h.625v-2.8931h.0106L102.7618 30h.5406l1.0394-2.8931h.0106V30h.625v-3.7488h-.9137l-1.0081 2.935h-.0107l-1.0337-2.935h-.9244zm-3.4594-3.1819h1.1863V30h.6562v-3.1819h1.192v-.5669h-3.0345zM90 30l30-30h-18.0562L71.9443 30zm-4.3012-16.935h-36.317c-11.0681 0-13.005.5869-17.7456 5.3275C27.2024 22.8263 20.0006 30 20.0006 30h15.7318l3.7532-3.7531c2.4675-2.4675 3.74-2.7232 8.9212-2.7232h26.8338zm-54.5469 3.1881C27.8774 19.3425 20.7531 26.2631 16.9131 30H-.0001S13.5524 16.4869 21.085 9.0725C28.8456 1.685 32.7143 0 46.9487 0h51.8156L87.545 11.2188H48.0012c-10.0019 0-12.2494.693-16.8494 5.0343"/></defs><g id="Logos-/-F1-logo-red" fill="none" fill-rule="evenodd" stroke="none" stroke-width="1"><g id="Page-1"><use xlink:href="#path-1" id="Fill-1" fill="#e00"/></g></g></svg>
